!!!!SEGMENT: pl-kk--kk-i-389--006-001_anonim--missa-no-6-rorate.krn
!!!cenid: 17xx:2491
!!!COM: Anonim
!!!COM-rismID: pe30004985
!!!CDT:
!!!CNT:
!!!OPR: [Missa] No. 6.
!!!OTL: Rorate
!!!OMV: 001
!!!PDT:
!!!AGN: Sacred; Mass
!!!YEC: Copyright 2022 Narodowy Instytut Fryderyka Chopina (https://polishscores.org)
!!!YEM: License CC-BY-4.0 (https://creativecommons.org/licenses/by/4.0)
!!!SMS-siglum: PL-Kk
!!!SMS-shelfmark: Kk.I.389
!!!SMS-variant:
!!!SMS-altvar:
!!!SMS-shelfwork: 006-001 M
!!!NIFC-rismSourceID: 1001146182
!!!NIFC-rismChildID: 1001147228
!!!NIFC-islandoraID: pl-kk:6976
!!!URL-pdf-islandora: https://repozytorium.nifc.pl/islandora/object/pl-kk%3A6976/datastream/PDF/view
!!!URL-scan: https://polish.musicsources.pl/pl/lokalizacje/galeria/rekopisy/5999/1 @EN{Scan on Polish Music Sources Website} @PL{Skany w portalu Dziedzictwo Muzyki Polskiej w otwartym dostępie}
!!!IIIF:
!!!ONB-nifc: UWAGA: S – skan 10-12, A – 29-31 , T – 48-49 , B – 67-69 . Części Mszy: Rorate, Kyrie, Gloria, Graduale, Sanctus, Benedictus, Agnus, Dona.
!!!AIN: 1 alto 1 bass 1 soprn 1 tenor
!!!key: d
**kern	**text	**kern	**text	**kern	**text	**kern	**text
*part4	*part4	*part3	*part3	*part2	*part2	*part1	*part1
*staff4	*staff4	*staff3	*staff3	*staff2	*staff2	*staff1	*staff1
*I"Basso.	*	*I"Tenore.	*	*I"Alto.	*	*I"Soprano.	*
*I'[B]	*	*I'[T]	*	*I'[A]	*	*I'[S]	*
*ICvox	*	*ICvox	*	*ICvox	*	*ICvox	*
*Ibass	*	*Itenor	*	*Ialto	*	*Isoprn	*
*clefF4	*	*clefC4	*	*clefC3	*	*clefC1	*
*k[b-]	*	*k[b-]	*	*k[b-]	*	*k[b-]	*
*d:	*	*d:	*	*d:	*	*d:	*
*M2/2	*	*M2/2	*	*M2/2	*	*M2/2	*
*met(C.|)	*	*met(C.|)	*	*met(C.|)	*	*met(C.|)	*
=1	=1	=1	=1	=1	=1	=1	=1
!!LO:TX:t=P:problem:all\right	!	!	!	!	!	!	!
*2\right	*	*2\right	*	*2\right	*	*	*
2.D\	Ro-	2.A\	Ro-	2.f\	Ro-	4d/	Ro-
.	.	.	.	.	.	4e/	.
.	.	.	.	.	.	4f/	.
4E\	.	4G/	.	4e\	.	4g/	.
=2	=2	=2	=2	=2	=2	=2	=2
*	*	*	*	*	*	*2\right	*
2F\	-ra-	4F/	-ra-	4d\	-ra-	2a\	-ra-
.	.	4G/	.	4e\	.	.	.
2D\	-te	4A/	.	4f\	.	2a\	-te
.	.	4B-/	.	4d\	.	.	.
=3	=3	=3	=3	=3	=3	=3	=3
2.AA/	Ro-	2c\	.	2e\	.	4a\	ce-
.	.	.	.	.	.	4bn\	.
.	.	2c\	-te,	2e\	-te,	4cc\	.
4BB-/	.	.	.	.	.	8b\L	.
.	.	.	.	.	.	8a\J	.
=4	=4	=4	=4	=4	=4	=4	=4
!	!	!LO:TX:a:t=1.	!	!	!	!	!
4C/	.	1r	.	4e\	ce-	2g\	.
4D/	.	.	.	4f\	.	.	.
4E\	.	.	.	4g\	.	2g\	-li,
4F\	.	.	.	8f\L	.	.	.
.	.	.	.	8e\J	.	.	.
=5	=5	=5	=5	=5	=5	=5	=5
2G\	-ra-	4G/	Ro-	2d\	.	4bn\	ce-
.	.	4A/	.	.	.	4cc\	.
2G\	-te	4Bn\	-ra-	2d\	-li	4dd\	.
.	.	8A\L	-te	.	.	8cc\L	.
.	.	8G\J	.	.	.	8b\J	.
!	!	!	!	!	!	!LO:LB:g=original	!
=6	=6	=6	=6	=6	=6	=6	=6
2F\	ce-	2A\	ce-	4d\	ce-	1a	.
.	.	.	.	4e\	.	.	.
2D\	-li	2A\	-li	4f\	.	.	.
.	.	.	.	8e\L	.	.	.
.	.	.	.	8d\J	.	.	.
!	!	!	!	!LO:LB:g=original	!	!	!
=7	=7	=7	=7	=7	=7	=7	=7
2.E\	de-	4E/	de-	2c\	-li	1g	-li
.	.	4F/	.	.	.	.	.
.	.	[>2G/	.	[2e\	de-	.	.
4D\	.	.	.	.	.	.	.
!LO:LB:g=original	!	!	!	!	!	!	!
=8	=8	=8	=8	=8	=8	=8	=8
2C/	.	2G\]	.	2e\]	.	2e/	de-
4BB-/	.	2E/	.	4d\	.	[2a\	.
4AA/	.	.	.	4c\	.	.	.
!	!	!LO:LB:g=original	!	!	!	!	!
=9	=9	=9	=9	=9	=9	=9	=9
2BBn/	.	2.B-\	.	2.d\	.	2a\]	.
2BB/	-su-	.	.	.	.	2g#X\	su-
.	.	4B-\	-su-	4d\	-su-	.	.
=10	=10	=10	=10	=10	=10	=10	=10
2AA/	-per,	2E/	-per,	2c#X\	-per,	1a	-per,
2A\	et	2r	.	2r	.	.	.
=11	=11	=11	=11	=11	=11	=11	=11
2F\	nu-	1A	et	2a\	et	2r	.
2D\	-bes	.	.	2f#X\	.	2dd\	et
=12	=12	=12	=12	=12	=12	=12	=12
2.G\	plu-	2B-\	nu-	2d\	nu-	2bn\	nu-
.	.	2d\	-bes	2g\	-bes	2g\	-bes
4F\	.	.	.	.	.	.	.
=13	=13	=13	=13	=13	=13	=13	=13
!	!	!	!	!LO:N:xstem:cue:vis=4	!	!	!
4E\	.	2G/	plu-	4g\	.	2.cc\	plu-
4D\	.	.	.	4fn\	plu-	.	.
2C/	-ant,	2G/	-ant	4e\	.	.	.
.	.	.	.	4d\	.	4b-X\	.
=14	=14	=14	=14	=14	=14	=14	=14
!LO:TX:a:t=6.	!	!	!	!	!	!	!
00r	.	2.F/	plu-	2d\	-ant,	4a\	.
.	.	.	.	.	.	4g\	.
.	.	.	.	[2d\	ju-	2f/	-ant
.	.	4G/	-ant	.	.	.	.
=15	=15	=15	=15	=15	=15	=15	=15
.	.	1A	ju-	2d\]	.	1e	ju-
.	.	.	.	2c#X\	.	.	.
!	!	!	!	!LO:LB:g=original	!	!	!
=16	=16	=16	=16	=16	=16	=16	=16
.	.	2D/	-stum	1d	-stum	2d/	-stum,
.	.	2d\	et	.	.	2r	.
!	!	!	!	!	!	!LO:LB:g=original	!
=17	=17	=17	=17	=17	=17	=17	=17
.	.	2B-\	nu-	2r	.	2dd\	et
.	.	2G/	-bes	2g\	et	2bn\	.
=18	=18	=18	=18	=18	=18	=18	=18
0r	.	2.c\	nu-	2e\	nu-	2g\	nu-
.	.	.	.	2c\	-bes	2cc\	-bes
.	.	4B-\	-bes	.	.	.	.
=19	=19	=19	=19	=19	=19	=19	=19
.	.	4A/	plu-	2.f\	plu-	4cc\	plu-
.	.	4G/	.	.	.	4b-X\	.
.	.	2F/	-ant	.	.	[2a\	-ant
.	.	.	.	4e\	.	.	.
=20	=20	=20	=20	=20	=20	=20	=20
!	!	!LO:N:xstem:cue:vis=4	!	!	!	!	!
2r	.	4F/	.	1d	-ant,	2a\]	.
.	.	4E/	.	.	.	.	.
2D\	et	2D/	ju-	.	.	2f#X/	ju-
!	!	!LO:LB:g=original	!	!	!	!	!
=21	=21	=21	=21	=21	=21	=21	=21
2BB-/	nu-	1G	-stum	2r	.	1d	-stum,
2GG/	-bes	.	.	2g\	et	.	.
=22	=22	=22	=22	=22	=22	=22	=22
2.C/	plu-	2r	.	2e\	nu-	2r	.
.	.	2G/	et	2c\	-bes	2ee\	et
4BB-/	.	.	.	.	.	.	.
!LO:LB:g=original	!	!	!	!	!	!	!
=23	=23	=23	=23	=23	=23	=23	=23
4AA/	.	2c\	nu-	2.e\	plu-	2cc\	nu-
4BB-/	.	.	.	.	.	.	.
4C/	.	2c\	-bes	.	.	2a\	-bes
4D/	.	.	.	4f#X\	.	.	.
=24	=24	=24	=24	=24	=24	=24	=24
1E	-ant	2.B-\	plu-	2g\	-ant,	4g\	plu-
.	.	.	.	.	.	4a\	.
.	.	.	.	[2g\	ju-	4b-X\	.
.	.	4c#X\	-ant	.	.	4g\	-ant
=25	=25	=25	=25	=25	=25	=25	=25
1D	ju-	1d	ju-	2g\]	.	1a	ju-
.	.	.	.	2f#X\	.	.	.
=26	=26	=26	=26	=26	=26	=26	=26
2GG/	-stum,	2B-\	-stum,	2g\	-stum	1bn	-stum,
2G\	a-	2B-\	a-	2d\	a-	.	.
!	!	!	!	!LO:LB:g=original	!	!	!
=27	=27	=27	=27	=27	=27	=27	=27
!	!	!	!	!	!	!LO:TX:a:t=2	!
2F#X\	pe-	2A\	-pe-	2d\	-pe-	0r	.
2G\	-ri-	2B-\	-ri-	2d\	-ri-	.	.
=28	=28	=28	=28	=28	=28	=28	=28
1E	-a-	1G	-a-	2d\	-a-	.	.
.	.	.	.	2c#X\	-tur	.	.
!	!	!	!	!	!	!LO:LB:g=original	!
=29	=29	=29	=29	=29	=29	=29	=29
2D\	-tur,	1A	-tur	2d\	a-	2r	.
2D\	a-	.	.	2f\	.	2a\	a-
=30	=30	=30	=30	=30	=30	=30	=30
!	!	!LO:TX:a:t=1.	!	!	!	!	!
2C#X/	-pe-	1r	.	2e\	-pe-	2a\	-pe-
2D\	-ri-	.	.	2f\	-ri-	2a\	-ri-
=31	=31	=31	=31	=31	=31	=31	=31
1BB-X	-a-	4D/	a-	1d	-a-	2a\	-a-
.	.	4E/	.	.	.	.	.
.	.	4F/	-pe-	.	.	2g\	-tur
.	.	4G/	-ri-	.	.	.	.
=32	=32	=32	=32	=32	=32	=32	=32
2AA/	-tur,	4A\	-a-	2c#X\	-tur	2e/	ter-
.	.	4B-\	-tur	.	.	.	.
2FF/	a-	2c\	ter-	2f\	ter-	2a\	.
=33	=33	=33	=33	=33	=33	=33	=33
!LO:N:xstem:cue:vis=4	!	!	!	!LO:N:xstem:cue:vis=4	!	!	!
4FF/	.	1F	-ra,	4f\	.	2.cc\	.
4GG/	.	.	.	8e\L	.	.	.
.	.	.	.	8d\J	.	.	.
4AA/	-pe-	.	.	4c\	.	.	.
4BB-/	-ri-	.	.	4d\	.	8b-X\L	.
.	.	.	.	.	.	8a\J	.
!LO:LB:g=original	!	!LO:LB:g=original	!	!	!	!	!
=34	=34	=34	=34	=34	=34	=34	=34
2C/	-a-	2r	.	4e\	.	2g\	.
.	.	.	.	4c\	.	.	.
2D/	-tur	2A\	ter-	2f\	.	2f/	.
=35	=35	=35	=35	=35	=35	=35	=35
!	!	!	!	!LO:N:xstem:cue:vis=4	!	!	!
2BB-/	ter-	2d\	.	4f\	.	1g	.
.	.	.	.	8e\L	.	.	.
.	.	.	.	8d\J	.	.	.
2C/	.	2c\	.	2e\	.	.	.
!	!	!	!	!LO:LB:g=original	!	!	!
=36	=36	=36	=36	=36	=36	=36	=36
1F	-ra.	1A	-ra,	1f	-ra	2f/	-ra,
.	.	.	.	.	.	2f/	et
=37	=37	=37	=37	=37	=37	=37	=37
!LO:TX:a:t=2	!	!	!	!LO:TX:a:t=1.	!	!	!
0r	.	2r	.	1r	.	4a\	ger-
.	.	.	.	.	.	4g\	.
.	.	2F/	et	.	.	4a\	.
.	.	.	.	.	.	4b-\	.
=38	=38	=38	=38	=38	=38	=38	=38
.	.	4A\	ger-	2r	.	2.cc\	.
.	.	4G\	.	.	.	.	.
.	.	4A\	.	2c\	et	.	.
.	.	4B-\	.	.	.	4cc\	-mi-
!	!	!	!	!	!	!LO:LB:g=original	!
=39	=39	=39	=39	=39	=39	=39	=39
2r	.	2.c\	.	4e\	ger-	1g	-net
.	.	.	.	4d\	.	.	.
2C/	et	.	.	4e\	.	.	.
.	.	4c\	-mi-	4f\	.	.	.
=40	=40	=40	=40	=40	=40	=40	=40
4E\	ger-	1G	-net,	2.g\	.	2r	.
4D\	.	.	.	.	.	.	.
4E\	.	.	.	.	.	2g\	et
4F\	.	.	.	4g\	-mi-	.	.
=41	=41	=41	=41	=41	=41	=41	=41
2.G\	.	2r	.	1d	-net,	4bn\	ger-
.	.	.	.	.	.	4a\	.
.	.	2G/	et	.	.	4b\	.
8F\L	.	.	.	.	.	4cc\	.
8E\J	.	.	.	.	.	.	.
=42	=42	=42	=42	=42	=42	=42	=42
!	!	!	!	!LO:TX:a:t=1.	!	!	!
2D\	.	4A\	ger-	1r	.	2.dd\	.
.	.	4G\	.	.	.	.	.
2D\	-mi-	4A\	.	.	.	.	.
.	.	4F/	.	.	.	8cc\L	.
.	.	.	.	.	.	8b-\J	.
=43	=43	=43	=43	=43	=43	=43	=43
2AA/	-net	2.c\	.	2r	.	2.a\	.
2AA/	et	.	.	2c\	et	.	.
.	.	4c\	-mi-	.	.	4a\	-mi-
=44	=44	=44	=44	=44	=44	=44	=44
4C/	ger-	1G	-net	4e\	ger-	2g\	-net
4BB-/	.	.	.	4d\	.	.	.
4C/	.	.	.	4e\	.	2cc\	et
4D/	.	.	.	4f\	.	.	.
!LO:LB:g=original	!	!	!	!	!	!	!
=45	=45	=45	=45	=45	=45	=45	=45
2.E\	.	2r	.	2.g\	.	4bn\	ger-
.	.	.	.	.	.	4a\	.
.	.	2G/	et	.	.	4b\	.
8D\L	.	.	.	8f#X\L	.	4cc\	.
8C\J	.	.	.	8e\J	.	.	.
!	!	!LO:LB:g=original	!	!LO:LB:g=original	!	!	!
=46	=46	=46	=46	=46	=46	=46	=46
2.BB-/	.	2.G/	ger-	2.d\	.	2.dd\	.
4C/	.	4G/	-mi-	4e\	.	8cc\L	.
.	.	.	.	.	.	8b-X\J	.
=47	=47	=47	=47	=47	=47	=47	=47
2.D\	.	2D/	-net	4f#X\	.	2.a\	.
.	.	.	.	2g\	.	.	.
.	.	2d\	Sal-	.	.	.	.
4D\	-mi-	.	.	4f#\	-mi-	4a\	-mi-
!	!	!	!	!	!	!LO:LB:g=original	!
=48	=48	=48	=48	=48	=48	=48	=48
!	!	!LO:N:xstem:cue:vis=4	!	!	!	!	!
2GG/	-net	4d\	.	1g	-net	4g\	-net
.	.	4c\	-va-	.	.	2dd\	Sal-
2G\	Sal-	2B-\	-to-	.	.	.	.
.	.	.	.	.	.	4cc\	.
=49	=49	=49	=49	=49	=49	=49	=49
!LO:N:xstem:cue:vis=4	!	!LO:N:xstem:cue:vis=4	!	!	!	!	!
4G\	.	4B-\	.	2r	.	2.b-X\	.
4F\	.	4A\	.	.	.	.	.
2E\	.	[>2G/	.	2g\	Sal-	.	.
.	.	.	.	.	.	4a\	-va-
=50	=50	=50	=50	=50	=50	=50	=50
!LO:N:xstem:cue:vis=4	!	!	!	!LO:N:xstem:cue:vis=4	!	!	!
4E\	.	2G/]	.	4g\	.	2g\	-to-
4D\	.	.	.	4fn\	.	.	.
2C/	-va-	2G/	-rem,	4e\	-va-	2cc\	.
.	.	.	.	4f\	.	.	.
=51	=51	=51	=51	=51	=51	=51	=51
!	!	!LO:TX:a:t=1.	!	!	!	!	!
2BB-/	-to-	1r	.	2g\	-to-	1g	-rem
2C/	.	.	.	2e\	.	.	.
=52	=52	=52	=52	=52	=52	=52	=52
2GG/	-rem	2.d\	Sal-	1d	-rem	2r	.
2G\	Sal-	.	.	.	.	2bn\	Sal-
.	.	4c\	-va-	.	.	.	.
=53	=53	=53	=53	=53	=53	=53	=53
!LO:N:xstem:cue:vis=4	!	!	!	!	!	!LO:N:xstem:cue:vis=4	!
4G\	.	2.B-\	-to-	2r	.	4bny\	.
4F\	.	.	.	.	.	4a\	.
2E\	.	.	.	2g\	Sal-	[2g\	.
.	.	4A\	.	.	.	.	.
=54	=54	=54	=54	=54	=54	=54	=54
!LO:N:xstem:cue:vis=4	!	!	!	!LO:N:xstem:cue:vis=4	!	!	!
4E\	.	2B-\	.	4g\	.	2g\]	.
4D/	.	.	.	4f\	.	.	.
2C/	.	2c\	.	2e\	-va-	4a\	.
.	.	.	.	.	.	4b-X\	-va-
!LO:LB:g=original	!	!	!	!	!	!	!
=55	=55	=55	=55	=55	=55	=55	=55
!	!	!	!	!LO:N:xstem:cue:vis=4	!	!	!
2C/	.	2G/	.	4e\	.	1cc	-to-
.	.	.	.	4d\	.	.	.
2AA/	-va-	[>2A/	.	4c\	.	.	.
.	.	.	.	4d\	.	.	.
!	!	!	!	!LO:LB:g=original	!	!	!
=56	=56	=56	=56	=56	=56	=56	=56
!	!	!	!	!	!	!LO:TX:t=P:problem:niezgodny pion harmoniczny	!
1E	-to-	2A/]	.	1e	-to-	1b-X	.
.	.	2G#X/	.	.	.	.	.
=57	=57	=57	=57	=57	=57	=57	=57
2AA/	-rem	2A\	-rem,	1e	-rem	1a	-rem
!	!	!LO:LB:g=original	!	!	!	!	!
2A\	Sal-	2c\	Sal-	.	.	.	.
=58	=58	=58	=58	=58	=58	=58	=58
!LO:N:xstem:cue:vis=4	!	!LO:N:xstem:cue:vis=4	!	!	!	!LO:TX:a:t=1.	!
4A\	.	4c\	.	2r	.	1r	.
4G\	.	4B-\	.	.	.	.	.
2F\	.	4A\	.	2a\	Sal-	.	.
.	.	4c\	-va-	.	.	.	.
!	!	!	!	!	!	!LO:LB:g=original	!
=59	=59	=59	=59	=59	=59	=59	=59
!LO:N:xstem:cue:vis=4	!	!	!	!LO:N:xstem:cue:vis=4	!	!	!
4F\	.	2d\	-to-	4a\	.	2.a\	Sal-
4E\	.	.	.	4g\	.	.	.
[2D\	-va-	2A\	.	2f\	-va-	.	.
.	.	.	.	.	.	4g\	-va-
=60	=60	=60	=60	=60	=60	=60	=60
2D\]	-to-	1A	-rem,	2d\	-to-	2f/	-to-
2C#X/	.	.	.	2e\	.	2e/	.
=61	=61	=61	=61	=61	=61	=61	=61
!	!	!LO:TX:a:t=1.	!	!	!	!	!
2D\	-rem	1r	.	2f\	-rem	4d/	.
.	.	.	.	.	.	4e/	.
2D\	Sal-	.	.	[2d\	Sal-	4f/	.
.	.	.	.	.	.	4g/	.
=62	=62	=62	=62	=62	=62	=62	=62
!LO:N:xstem:cue:vis=4	!	!	!	!	!	!	!
4D\	.	2r	.	2d\]	.	2a\	.
4C/	.	.	.	.	.	.	.
2BB-/	.	2d\	Sal-	2d\	va-	2b-X\	.
=63	=63	=63	=63	=63	=63	=63	=63
!LO:N:xstem:cue:vis=4	!	!LO:N:xstem:cue:vis=4	!	!LO:TX:a:t=2	!	!	!
4BB-/	.	4d\	.	0d	-to-	4b-\	.
4AA/	.	4c\	-va-	.	.	4cc\	.
[>2GG/	.	[2B-X\	-to-	.	.	4dd\	.
.	.	.	.	.	.	4dd\	-rem
=64	=64	=64	=64	=64	=64	=64	=64
2GG/]	.	2B-\]	.	.	.	2.dd\	Sal-
2FF#X/	-va-	2A\	.	.	.	.	.
.	.	.	.	.	.	4cc\	-va-
!LO:LB:g=original	!	!	!	!	!	!	!
=65	=65	=65	=65	=65	=65	=65	=65
!	!	!	!	!LO:TX:a:t=6	!	!	!
!	!	!	!	!LO:N:vis=0.	!	!	!
2GG/	-to-	2G/	.	[y1d	-rem.	2b-X\	-to-
2D\	.	2F#X/	.	.	.	2a\	.
=66	=66	=66	=66	=66	=66	=66	=66
2.GG/	.	2G/	-rem	1d_yy	.	4g\	.
.	.	.	.	.	.	4a\	.
.	.	[2d\	Sal-	.	.	4b-\	.
4AA/	-rem	.	.	.	.	8a\L	.
.	.	.	.	.	.	8g\J	.
!	!	!	!	!	!	!LO:LB:g=original	!
=67	=67	=67	=67	=67	=67	=67	=67
2BB-/	Sal-	2d\]	.	1d_yy	.	2f/	-rem
2AA/	.	2c\	-va-	.	.	4f#X/	Sal-
.	.	.	.	.	.	4f#/	-va-
=68	=68	=68	=68	=68	=68	=68	=68
2GG/	.	2B-X\	-to-	1d_yy	.	2g\	-to-
!	!	!LO:LB:g=original	!	!	!	!	!
2FF#X/	-va-	2A\	.	.	.	2a\	.
=69	=69	=69	=69	=69	=69	=69	=69
!	!	!LO:N:xstem:cue:vis=4	!	!	!	!	!
1GG	-to-	4A\	.	1d_yy	.	2.b-X\	.
.	.	8G/L	.	.	.	.	.
.	.	8F#X/J	.	.	.	.	.
.	.	2G/	.	.	.	.	.
.	.	.	.	.	.	8a\L	.
.	.	.	.	.	.	8g\J	.
=70	=70	=70	=70	=70	=70	=70	=70
0D	-rem.	0F#X	-rem.	0d]yy	.	0a	-rem.
==	==	==	==	==	==	==	==
*-	*-	*-	*-	*-	*-	*-	*-
!!!system-decoration: [(s1,s2,s3,s4)]
!!!RDF**kern: > = above
!!!RDF**kern: < = below
!!!ENC: Filip Voros
!!!END: 2023-11-08
!!!EED: Jan Barakat
!!!EEV: 2023-12-01
